; generated by PrusaSlicer 2.5.2+win64 on 2023-05-29 at 20:38:06 UTC


;
;

;
;

;
;
; 

; external perimeters extrusion width = 0.45mm
; perimeters extrusion width = 0.45mm
; infill extrusion width = 0.45mm
; solid infill extrusion width = 0.45mm
; top infill extrusion width = 0.45mm
; first layer extrusion width = 0.50mm

M73 P0 R7
M201 X2500 Y2500 Z200 E2500 ; sets maximum accelerations, mm/sec^2
M203 X200 Y200 Z40 E100 ; sets maximum feedrates, mm / sec
M204 P2000 R1200 T2000 ; sets acceleration (P, T) and retract acceleration (R), mm/sec^2
M205 X8.00 Y8.00 Z2.00 E10.00 ; sets the jerk limits, mm/sec
M205 S0 T0 ; sets the minimum extruding and travel feed rate, mm/sec
M107
;TYPE:Custom
M17 ; enable steppers
M862.3 P "MK4" ; printer model check
M862.1 P0.4 ; nozzle diameter check
M330 SYSLOG
M331 loadcell_raw
M331 loadcell_threshold
M331 loadcell_hysteresis
M331 loadcell_scale
M331 probe_z
M331 probe_z_raw
M331 probe_z_diff
M331 home_diff
M331 fsensor_raw
M331 temp_hbr
M331 temp_bed
M331 temp_noz
M331 temp_brd
M331 ttemp_bed
M331 ttemp_noz
M331 pos_z
M331 fan_speed
M331 fan_hbr_speed
M331 tmc_sg_x
M331 tmc_sg_y
M331 tmc_sg_z
M331 tmc_sg_e

M555 X120 Y96 W32 H14

G90 ; use absolute coordinates
M92 E380 ; set steps/mm for extruder
M83 ; extruder relative mode

M140 S60 ; set bed temp

M104 S170 ; set extruder temp for bed leveling  ;Modified
M109 R170 ; wait for temp  ;Modified


M84 E ; turn off E motor

G28 ; home all without mesh bed level

; probe to clean the nozzle
G1 X154.000 Y99.000 Z5 F2400.0  ;Modified

M302 S160 ; lower cold extrusion limit to 160C


G1 E-1.900 F1200.0 ; retraction  ;Modified


M84 E ; turn off E motor

G29 P9 X120 Y96 W32 H4

M106 S100

G0 X120 Y96 Z40 F10000

M190 S60 ; wait for bed temp

M107

;
; MBL
;
M84 E ; turn off E motor
G29 ; mesh bed leveling
M104 S215 ; set extruder temp  ;Modified
G0 X120 Y95.5 Z30 F4800

M109 S215 ; wait for extruder temp  ;Modified
G1 Z0.2 F360.0  ;Modified
G92 E0

M569 S0 E ; set spreadcycle mode for extruder

;
; Extrude purge line
;

G1 E1.900 F1200.0 ; deretraction  ;Modified


; move right
G1 X154.000 E4.560 F500.0  ;Modified
; move down
G1 Y97.000 E0.214 F500.0  ;Modified
; move left
M73 P1 R7
G1 X122.000 E9.120 F400.0  ;Modified

G92 E0
M221 S100 ; set flow to 100%
G21 ; set units to millimeters
G90 ; use absolute coordinates
M83 ; use relative distances for extrusion
M900 K0.06 ; Filament gcode

M142 S36 ; set heatbreak target temp
M107
;LAYER_CHANGE
;Z:0.2
;HEIGHT:0.2
;BEFORE_LAYER_CHANGE
G92 E0.0
;0.2


G1 E-0.760 F1029.0  ;Modified
G1 Z.2 F352.8  ;Modified
;AFTER_LAYER_CHANGE
;0.2
; printing object 10mm_test_cube.stl id:0 copy 0
G1 Z.4  ;Modified
M73 P2 R7
G1 X131.093 Y112.093 F5880.0  ;Modified
G1 Z.2 F352.8  ;Modified
G1 E0.760 F735.0  ;Modified
M204 P600
;TYPE:Perimeter
;WIDTH:0.499999
G1 F588.0  ;Modified
G1 X122.907 Y112.093 E0.296  ;Modified
G1 X122.907 Y103.907 E0.296  ;Modified
G1 X131.093 Y103.907 E0.296  ;Modified
G1 X131.093 Y112.033 E0.293  ;Modified
M204 P1000
G1 X131.551 Y112.550 F5880.0  ;Modified
M204 P600
;TYPE:External perimeter
G1 F588.0  ;Modified
G1 X122.450 Y112.550 E0.329  ;Modified
G1 X122.450 Y103.450 E0.329  ;Modified
G1 X131.551 Y103.450 E0.329  ;Modified
G1 X131.551 Y112.490 E0.326  ;Modified
M204 P1000
M73 P3 R7
G1 X131.164 Y112.446 F5880.0  ;Modified
G1 E-0.608 F1029.0  ;Modified
;WIPE_START
G1 F4704.0  ;Modified
G1 X130.819 Y112.495 E-0.144  ;Modified
;WIPE_END
G1 E-0.008 F1029.0  ;Modified
G1 Z.4 F352.8  ;Modified
G1 X129.956 Y104.113 F5880.0  ;Modified
G1 Z.2 F352.8  ;Modified
G1 E0.760 F735.0  ;Modified
M204 P600
;TYPE:Solid infill
;WIDTH:0.503759
G1 F588.0  ;Modified
G1 X130.682 Y104.839 E0.037  ;Modified
G1 X130.682 Y105.491 E0.024  ;Modified
G1 X129.510 Y104.318 E0.060  ;Modified
G1 X128.858 Y104.318 E0.024  ;Modified
G1 X130.682 Y106.142 E0.094  ;Modified
G1 X130.682 Y106.794 E0.024  ;Modified
G1 X128.206 Y104.318 E0.127  ;Modified
G1 X127.555 Y104.318 E0.024  ;Modified
G1 X130.682 Y107.446 E0.161  ;Modified
G1 X130.682 Y108.098 E0.024  ;Modified
G1 X126.903 Y104.318 E0.195  ;Modified
G1 X126.251 Y104.318 E0.024  ;Modified
G1 X130.682 Y108.749 E0.228  ;Modified
G1 X130.682 Y109.401 E0.024  ;Modified
G1 X125.599 Y104.318 E0.262  ;Modified
G1 X124.948 Y104.318 E0.024  ;Modified
G1 X130.682 Y110.053 E0.295  ;Modified
G1 X130.682 Y110.705 E0.024  ;Modified
G1 X124.296 Y104.318 E0.329  ;Modified
G1 X123.644 Y104.318 E0.024  ;Modified
M73 P4 R6
G1 X130.682 Y111.356 E0.362  ;Modified
G1 X130.682 Y111.682 E0.012  ;Modified
G1 X130.356 Y111.682 E0.012  ;Modified
G1 X123.318 Y104.644 E0.362  ;Modified
G1 X123.318 Y105.296 E0.024  ;Modified
G1 X129.704 Y111.682 E0.329  ;Modified
G1 X129.052 Y111.682 E0.024  ;Modified
G1 X123.318 Y105.947 E0.295  ;Modified
G1 X123.318 Y106.599 E0.024  ;Modified
G1 X128.400 Y111.682 E0.262  ;Modified
G1 X127.749 Y111.682 E0.024  ;Modified
G1 X123.318 Y107.251 E0.228  ;Modified
G1 X123.318 Y107.902 E0.024  ;Modified
G1 X127.097 Y111.682 E0.195  ;Modified
G1 X126.445 Y111.682 E0.024  ;Modified
G1 X123.318 Y108.554 E0.161  ;Modified
G1 X123.318 Y109.206 E0.024  ;Modified
G1 X125.794 Y111.682 E0.127  ;Modified
G1 X125.142 Y111.682 E0.024  ;Modified
G1 X123.318 Y109.858 E0.094  ;Modified
G1 X123.318 Y110.509 E0.024  ;Modified
G1 X124.490 Y111.682 E0.060  ;Modified
G1 X123.838 Y111.682 E0.024  ;Modified
M73 P5 R6
G1 X123.112 Y110.955 E0.037  ;Modified
M204 P1000
; stop printing object 10mm_test_cube.stl id:0 copy 0
M106 S84.15
;LAYER_CHANGE
;Z:0.4
;HEIGHT:0.2
;BEFORE_LAYER_CHANGE
G92 E0.0
;0.4


G1 E-0.608 F1008.0  ;Modified
;WIPE_START
G1 F4608.0  ;Modified
G1 X123.629 Y111.473 E-0.144  ;Modified
;WIPE_END
G1 E-0.008 F1008.0  ;Modified
G1 Z.4 F345.6  ;Modified
;AFTER_LAYER_CHANGE
;0.4
; printing object 10mm_test_cube.stl id:0 copy 0
G1 Z.6  ;Modified
G1 X131.368 Y112.368 F5760.0  ;Modified
G1 Z.4 F345.6  ;Modified
G1 E0.760 F720.0  ;Modified
M204 P900
;TYPE:Perimeter
;WIDTH:0.449999
G1 X122.632 Y112.368 E0.281  ;Modified
G1 X122.632 Y103.632 E0.281  ;Modified
G1 X131.368 Y103.632 E0.281  ;Modified
G1 X131.368 Y112.308 E0.279  ;Modified
M204 P1000
G1 X131.776 Y112.775 F5760.0  ;Modified
M204 P700
;TYPE:External perimeter
G1 F720.0  ;Modified
G1 X122.225 Y112.775 E0.307  ;Modified
G1 X122.225 Y103.225 E0.307  ;Modified
G1 X131.776 Y103.225 E0.307  ;Modified
G1 X131.776 Y112.715 E0.305  ;Modified
M204 P1000
G1 X131.389 Y112.671 F5760.0  ;Modified
G1 E-0.608 F1008.0  ;Modified
;WIPE_START
G1 F4608.0  ;Modified
G1 X131.044 Y112.720 E-0.144  ;Modified
;WIPE_END
G1 E-0.008 F1008.0  ;Modified
G1 Z.6 F345.6  ;Modified
G1 X130.356 Y112.185 F5760.0  ;Modified
G1 Z.4 F345.6  ;Modified
G1 E0.760 F720.0  ;Modified
M204 P1500
;TYPE:Solid infill
;WIDTH:0.453075
G1 F1037.28  ;Modified
G1 X131.002 Y111.538 E0.030  ;Modified
G1 X131.002 Y110.958 E0.019  ;Modified
G1 X129.959 Y112.002 E0.048  ;Modified
G1 X129.379 Y112.002 E0.019  ;Modified
G1 X131.002 Y110.378 E0.074  ;Modified
G1 X131.002 Y109.798 E0.019  ;Modified
G1 X128.799 Y112.002 E0.101  ;Modified
G1 X128.219 Y112.002 E0.019  ;Modified
G1 X131.002 Y109.218 E0.128  ;Modified
G1 X131.002 Y108.638 E0.019  ;Modified
G1 X127.639 Y112.002 E0.154  ;Modified
G1 X127.059 Y112.002 E0.019  ;Modified
M73 P6 R6
G1 X131.002 Y108.058 E0.181  ;Modified
G1 X131.002 Y107.478 E0.019  ;Modified
G1 X126.479 Y112.002 E0.207  ;Modified
G1 X125.899 Y112.002 E0.019  ;Modified
G1 X131.002 Y106.898 E0.234  ;Modified
G1 X131.002 Y106.318 E0.019  ;Modified
G1 X125.319 Y112.002 E0.260  ;Modified
G1 X124.739 Y112.002 E0.019  ;Modified
G1 X131.002 Y105.738 E0.287  ;Modified
G1 X131.002 Y105.158 E0.019  ;Modified
G1 X124.158 Y112.002 E0.314  ;Modified
G1 X123.578 Y112.002 E0.019  ;Modified
G1 X131.002 Y104.578 E0.340  ;Modified
G1 X131.002 Y103.998 E0.019  ;Modified
G1 X122.998 Y112.002 E0.367  ;Modified
G1 X122.998 Y111.422 E0.019  ;Modified
G1 X130.421 Y103.998 E0.340  ;Modified
G1 X129.841 Y103.998 E0.019  ;Modified
G1 X122.998 Y110.842 E0.314  ;Modified
G1 X122.998 Y110.262 E0.019  ;Modified
G1 X129.261 Y103.998 E0.287  ;Modified
G1 X128.681 Y103.998 E0.019  ;Modified
G1 X122.998 Y109.682 E0.260  ;Modified
G1 X122.998 Y109.102 E0.019  ;Modified
G1 X128.101 Y103.998 E0.234  ;Modified
G1 X127.521 Y103.998 E0.019  ;Modified
G1 X122.998 Y108.522 E0.207  ;Modified
G1 X122.998 Y107.942 E0.019  ;Modified
G1 X126.941 Y103.998 E0.181  ;Modified
G1 X126.361 Y103.998 E0.019  ;Modified
G1 X122.998 Y107.362 E0.154  ;Modified
G1 X122.998 Y106.782 E0.019  ;Modified
G1 X125.781 Y103.998 E0.128  ;Modified
G1 X125.201 Y103.998 E0.019  ;Modified
M73 P7 R6
G1 X122.998 Y106.202 E0.101  ;Modified
G1 X122.998 Y105.621 E0.019  ;Modified
G1 X124.621 Y103.998 E0.074  ;Modified
G1 X124.041 Y103.998 E0.019  ;Modified
G1 X122.998 Y105.041 E0.048  ;Modified
G1 X122.998 Y104.461 E0.019  ;Modified
G1 X123.644 Y103.815 E0.030  ;Modified
M204 P1000
; stop printing object 10mm_test_cube.stl id:0 copy 0
M106 S170.85
;LAYER_CHANGE
;Z:0.6
;HEIGHT:0.2
;BEFORE_LAYER_CHANGE
G92 E0.0
;0.6


G1 E-0.608 F987.0  ;Modified
;WIPE_START
G1 F4512.0  ;Modified
G1 X123.127 Y104.332 E-0.144  ;Modified
;WIPE_END
G1 E-0.008 F987.0  ;Modified
G1 Z.6 F338.4  ;Modified
;AFTER_LAYER_CHANGE
;0.6
; printing object 10mm_test_cube.stl id:0 copy 0
G1 Z.8  ;Modified
G1 X131.368 Y112.368 F5640.0  ;Modified
G1 Z.6 F338.4  ;Modified
G1 E0.760 F705.0  ;Modified
M204 P900
;TYPE:Perimeter
;WIDTH:0.449999
G1 X122.632 Y112.368 E0.281  ;Modified
G1 X122.632 Y103.632 E0.281  ;Modified
G1 X131.368 Y103.632 E0.281  ;Modified
G1 X131.368 Y112.308 E0.279  ;Modified
M204 P1000
G1 X131.776 Y112.775 F5640.0  ;Modified
M204 P700
;TYPE:External perimeter
G1 F705.0  ;Modified
G1 X122.225 Y112.775 E0.307  ;Modified
G1 X122.225 Y103.225 E0.307  ;Modified
G1 X131.776 Y103.225 E0.307  ;Modified
G1 X131.776 Y112.715 E0.305  ;Modified
M204 P1000
G1 X131.389 Y112.671 F5640.0  ;Modified
G1 E-0.608 F987.0  ;Modified
;WIPE_START
G1 F4512.0  ;Modified
G1 X131.044 Y112.720 E-0.144  ;Modified
;WIPE_END
G1 E-0.008 F987.0  ;Modified
G1 Z.8 F338.4  ;Modified
G1 X130.356 Y103.815 F5640.0  ;Modified
G1 Z.6 F338.4  ;Modified
G1 E0.760 F705.0  ;Modified
M204 P1500
;TYPE:Solid infill
;WIDTH:0.453075
G1 F1028.36  ;Modified
G1 X131.002 Y104.462 E0.030  ;Modified
G1 X131.002 Y105.042 E0.019  ;Modified
G1 X129.959 Y103.998 E0.048  ;Modified
G1 X129.379 Y103.998 E0.019  ;Modified
M73 P8 R6
G1 X131.002 Y105.622 E0.074  ;Modified
G1 X131.002 Y106.202 E0.019  ;Modified
G1 X128.799 Y103.998 E0.101  ;Modified
G1 X128.219 Y103.998 E0.019  ;Modified
G1 X131.002 Y106.782 E0.128  ;Modified
G1 X131.002 Y107.362 E0.019  ;Modified
G1 X127.639 Y103.998 E0.154  ;Modified
G1 X127.059 Y103.998 E0.019  ;Modified
G1 X131.002 Y107.942 E0.181  ;Modified
G1 X131.002 Y108.522 E0.019  ;Modified
G1 X126.479 Y103.998 E0.207  ;Modified
G1 X125.899 Y103.998 E0.019  ;Modified
G1 X131.002 Y109.102 E0.234  ;Modified
G1 X131.002 Y109.682 E0.019  ;Modified
G1 X125.319 Y103.998 E0.260  ;Modified
G1 X124.739 Y103.998 E0.019  ;Modified
G1 X131.002 Y110.262 E0.287  ;Modified
G1 X131.002 Y110.842 E0.019  ;Modified
G1 X124.158 Y103.998 E0.314  ;Modified
G1 X123.578 Y103.998 E0.019  ;Modified
G1 X131.002 Y111.422 E0.340  ;Modified
G1 X131.002 Y112.002 E0.019  ;Modified
G1 X122.998 Y103.998 E0.367  ;Modified
G1 X122.998 Y104.578 E0.019  ;Modified
G1 X130.421 Y112.002 E0.340  ;Modified
G1 X129.841 Y112.002 E0.019  ;Modified
G1 X122.998 Y105.158 E0.314  ;Modified
G1 X122.998 Y105.738 E0.019  ;Modified
G1 X129.261 Y112.002 E0.287  ;Modified
G1 X128.681 Y112.002 E0.019  ;Modified
G1 X122.998 Y106.318 E0.260  ;Modified
G1 X122.998 Y106.898 E0.019  ;Modified
G1 X128.101 Y112.002 E0.234  ;Modified
G1 X127.521 Y112.002 E0.019  ;Modified
G1 X122.998 Y107.478 E0.207  ;Modified
G1 X122.998 Y108.058 E0.019  ;Modified
G1 X126.941 Y112.002 E0.181  ;Modified
G1 X126.361 Y112.002 E0.019  ;Modified
M73 P9 R6
G1 X122.998 Y108.638 E0.154  ;Modified
G1 X122.998 Y109.218 E0.019  ;Modified
G1 X125.781 Y112.002 E0.128  ;Modified
G1 X125.201 Y112.002 E0.019  ;Modified
G1 X122.998 Y109.798 E0.101  ;Modified
G1 X122.998 Y110.379 E0.019  ;Modified
G1 X124.621 Y112.002 E0.074  ;Modified
G1 X124.041 Y112.002 E0.019  ;Modified
G1 X122.998 Y110.959 E0.048  ;Modified
G1 X122.998 Y111.539 E0.019  ;Modified
G1 X123.644 Y112.185 E0.030  ;Modified
M204 P1000
; stop printing object 10mm_test_cube.stl id:0 copy 0
M106 S255
;LAYER_CHANGE
;Z:0.8
;HEIGHT:0.2
;BEFORE_LAYER_CHANGE
G92 E0.0
;0.8


G1 E-0.608 F966.0  ;Modified
;WIPE_START
G1 F4416.0  ;Modified
G1 X123.127 Y111.668 E-0.144  ;Modified
;WIPE_END
G1 E-0.008 F966.0  ;Modified
G1 Z.8 F331.2  ;Modified
;AFTER_LAYER_CHANGE
;0.8
; printing object 10mm_test_cube.stl id:0 copy 0
G1 Z1  ;Modified
G1 X131.368 Y112.368 F5520.0  ;Modified
G1 Z.8 F331.2  ;Modified
G1 E0.760 F690.0  ;Modified
M204 P900
;TYPE:Perimeter
;WIDTH:0.449999
G1 X122.632 Y112.368 E0.281  ;Modified
G1 X122.632 Y103.632 E0.281  ;Modified
G1 X131.368 Y103.632 E0.281  ;Modified
G1 X131.368 Y112.308 E0.279  ;Modified
M204 P1000
G1 X131.776 Y112.775 F5520.0  ;Modified
M204 P700
;TYPE:External perimeter
G1 F690.0  ;Modified
G1 X122.225 Y112.775 E0.307  ;Modified
G1 X122.225 Y103.225 E0.307  ;Modified
G1 X131.776 Y103.225 E0.307  ;Modified
G1 X131.776 Y112.715 E0.305  ;Modified
M204 P1000
G1 X131.389 Y112.671 F5520.0  ;Modified
G1 E-0.608 F966.0  ;Modified
;WIPE_START
G1 F4416.0  ;Modified
M73 P10 R6
G1 X131.044 Y112.720 E-0.144  ;Modified
;WIPE_END
G1 E-0.008 F966.0  ;Modified
G1 Z1 F331.2  ;Modified
G1 X130.356 Y112.185 F5520.0  ;Modified
G1 Z.8 F331.2  ;Modified
G1 E0.760 F690.0  ;Modified
M204 P1500
;TYPE:Solid infill
;WIDTH:0.453075
G1 F994.52  ;Modified
G1 X131.002 Y111.538 E0.030  ;Modified
G1 X131.002 Y110.958 E0.019  ;Modified
G1 X129.959 Y112.002 E0.048  ;Modified
G1 X129.379 Y112.002 E0.019  ;Modified
G1 X131.002 Y110.378 E0.074  ;Modified
G1 X131.002 Y109.798 E0.019  ;Modified
G1 X128.799 Y112.002 E0.101  ;Modified
G1 X128.219 Y112.002 E0.019  ;Modified
G1 X131.002 Y109.218 E0.128  ;Modified
G1 X131.002 Y108.638 E0.019  ;Modified
G1 X127.639 Y112.002 E0.154  ;Modified
G1 X127.059 Y112.002 E0.019  ;Modified
G1 X131.002 Y108.058 E0.181  ;Modified
G1 X131.002 Y107.478 E0.019  ;Modified
G1 X126.479 Y112.002 E0.207  ;Modified
G1 X125.899 Y112.002 E0.019  ;Modified
G1 X131.002 Y106.898 E0.234  ;Modified
G1 X131.002 Y106.318 E0.019  ;Modified
G1 X125.319 Y112.002 E0.260  ;Modified
G1 X124.739 Y112.002 E0.019  ;Modified
G1 X131.002 Y105.738 E0.287  ;Modified
G1 X131.002 Y105.158 E0.019  ;Modified
G1 X124.158 Y112.002 E0.314  ;Modified
G1 X123.578 Y112.002 E0.019  ;Modified
G1 X131.002 Y104.578 E0.340  ;Modified
G1 X131.002 Y103.998 E0.019  ;Modified
G1 X122.998 Y112.002 E0.367  ;Modified
G1 X122.998 Y111.422 E0.019  ;Modified
G1 X130.421 Y103.998 E0.340  ;Modified
G1 X129.841 Y103.998 E0.019  ;Modified
G1 X122.998 Y110.842 E0.314  ;Modified
G1 X122.998 Y110.262 E0.019  ;Modified
G1 X129.261 Y103.998 E0.287  ;Modified
G1 X128.681 Y103.998 E0.019  ;Modified
G1 X122.998 Y109.682 E0.260  ;Modified
G1 X122.998 Y109.102 E0.019  ;Modified
G1 X128.101 Y103.998 E0.234  ;Modified
G1 X127.521 Y103.998 E0.019  ;Modified
G1 X122.998 Y108.522 E0.207  ;Modified
G1 X122.998 Y107.942 E0.019  ;Modified
M73 P11 R6
G1 X126.941 Y103.998 E0.181  ;Modified
G1 X126.361 Y103.998 E0.019  ;Modified
G1 X122.998 Y107.362 E0.154  ;Modified
G1 X122.998 Y106.782 E0.019  ;Modified
G1 X125.781 Y103.998 E0.128  ;Modified
G1 X125.201 Y103.998 E0.019  ;Modified
G1 X122.998 Y106.202 E0.101  ;Modified
G1 X122.998 Y105.621 E0.019  ;Modified
G1 X124.621 Y103.998 E0.074  ;Modified
G1 X124.041 Y103.998 E0.019  ;Modified
G1 X122.998 Y105.041 E0.048  ;Modified
G1 X122.998 Y104.461 E0.019  ;Modified
G1 X123.644 Y103.815 E0.030  ;Modified
M204 P1000
; stop printing object 10mm_test_cube.stl id:0 copy 0
;LAYER_CHANGE
;Z:1
;HEIGHT:0.2
;BEFORE_LAYER_CHANGE
G92 E0.0
;1


G1 E-0.608 F945.0  ;Modified
;WIPE_START
G1 F4320.0  ;Modified
G1 X123.127 Y104.332 E-0.144  ;Modified
;WIPE_END
G1 E-0.008 F945.0  ;Modified
G1 Z1 F324.0  ;Modified
;AFTER_LAYER_CHANGE
;1
