; generated by PrusaSlicer 2.5.2+win64 on 2023-05-16 at 19:57:45 UTC


;
;

;
;

;
;
; 

; external perimeters extrusion width = 0.45mm
; perimeters extrusion width = 0.45mm
; infill extrusion width = 0.45mm
; solid infill extrusion width = 0.45mm
; top infill extrusion width = 0.45mm
; first layer extrusion width = 0.50mm

M73 P0 R7
M201 X2500 Y2500 Z200 E2500 ; sets maximum accelerations, mm/sec^2
M203 X200 Y200 Z40 E100 ; sets maximum feedrates, mm / sec
M204 P2000 R1200 T2000 ; sets acceleration (P, T) and retract acceleration (R), mm/sec^2
M205 X8.00 Y8.00 Z2.00 E10.00 ; sets the jerk limits, mm/sec
M205 S0 T0 ; sets the minimum extruding and travel feed rate, mm/sec
M107
;TYPE:Custom
M17 ; enable steppers
M862.3 P "MK4" ; printer model check
M862.1 P0.4 ; nozzle diameter check
M330 SYSLOG
M331 loadcell_raw
M331 loadcell_threshold
M331 loadcell_hysteresis
M331 loadcell_scale
M331 probe_z
M331 probe_z_raw
M331 probe_z_diff
M331 home_diff
M331 fsensor_raw
M331 temp_hbr
M331 temp_bed
M331 temp_noz
M331 temp_brd
M331 ttemp_bed
M331 ttemp_noz
M331 pos_z
M331 fan_speed
M331 fan_hbr_speed
M331 tmc_sg_x
M331 tmc_sg_y
M331 tmc_sg_z
M331 tmc_sg_e

M555 X120 Y96 W32 H14

G90 ; use absolute coordinates
M92 E380 ; set steps/mm for extruder
M83 ; extruder relative mode

M140 S60 ; set bed temp

M104 S170 ; set extruder temp for bed leveling  ;Modified
M109 R170 ; wait for temp  ;Modified


M84 E ; turn off E motor

G28 ; home all without mesh bed level

; probe to clean the nozzle
G1 X152 Y96 Z5 F4800  ;Modified

M302 S160 ; lower cold extrusion limit to 160C


G1 E-2 F2400 ; retraction  ;Modified


M84 E ; turn off E motor

G29 P9 X120 Y96 W32 H4

M106 S100

G0 X120 Y96 Z40 F10000

M190 S60 ; wait for bed temp

M107

;
; MBL
;
M84 E ; turn off E motor
G29 ; mesh bed leveling
M104 S215 ; set extruder temp  ;Modified
G0 X120 Y95.5 Z30 F4800

M109 S215 ; wait for extruder temp  ;Modified
G1 Z0.2 F648.0  ;Modified
G92 E0

M569 S0 E ; set spreadcycle mode for extruder

;
; Extrude purge line
;

G1 E2 F2400 ; deretraction  ;Modified


; move right
G1 X152 E4.8 F1000  ;Modified
; move down
G1 Y94 E0.225 F1000  ;Modified
; move left
M73 P1 R7
G1 X120 E9.6 F800  ;Modified

G92 E0
M221 S100 ; set flow to 100%
G21 ; set units to millimeters
G90 ; use absolute coordinates
M83 ; use relative distances for extrusion
M900 K0.06 ; Filament gcode

M142 S36 ; set heatbreak target temp
M107
;LAYER_CHANGE
;Z:0.2
;HEIGHT:0.2
;BEFORE_LAYER_CHANGE
G92 E0.0
;0.2


G1 E-.8 F2100  ;Modified
G1 Z.2 F655.2  ;Modified
;AFTER_LAYER_CHANGE
;0.2
; printing object xyz-10mm-calibration-cube.stl id:0 copy 0
G1 Z.4  ;Modified
M73 P2 R7
G1 X129.093 Y109.093 F12000  ;Modified
G1 Z.2 F655.2  ;Modified
G1 E.8 F1500  ;Modified
M204 P600
;TYPE:Perimeter
;WIDTH:0.499999
G1 F1092.0  ;Modified
G1 X120.907 Y109.093 E.31111  ;Modified
G1 X120.907 Y100.907 E.31111  ;Modified
G1 X129.093 Y100.907 E.31111  ;Modified
G1 X129.093 Y109.033 E.30883  ;Modified
M204 P1000
G1 X129.55 Y109.55 F12000  ;Modified
M204 P600
;TYPE:External perimeter
G1 F1092.0  ;Modified
G1 X120.45 Y109.55 E.34586  ;Modified
G1 X120.45 Y100.45 E.34586  ;Modified
G1 X129.55 Y100.45 E.34586  ;Modified
G1 X129.55 Y109.49 E.34358  ;Modified
M204 P1000
G1 X129.164 Y109.446 F12000  ;Modified
G1 E-.64 F2100  ;Modified
;WIPE_START
M73 P3 R7
G1 F8736.0  ;Modified
G1 X128.819 Y109.495 E-.152  ;Modified
;WIPE_END
G1 E-.008 F2100  ;Modified
G1 Z.4 F655.2  ;Modified
G1 X127.955 Y101.113 F12000  ;Modified
G1 Z.2 F655.2  ;Modified
G1 E.8 F1500  ;Modified
M204 P600
;TYPE:Solid infill
;WIDTH:0.503729
G1 F1092.0  ;Modified
G1 X128.682 Y101.839 E.03935  ;Modified
G1 X128.682 Y102.491 E.02497  ;Modified
G1 X127.509 Y101.318 E.06352  ;Modified
G1 X126.858 Y101.318 E.02497  ;Modified
G1 X128.682 Y103.142 E.09883  ;Modified
G1 X128.682 Y103.794 E.02497  ;Modified
G1 X126.206 Y101.318 E.13414  ;Modified
G1 X125.554 Y101.318 E.02497  ;Modified
G1 X128.682 Y104.446 E.16946  ;Modified
G1 X128.682 Y105.097 E.02497  ;Modified
G1 X124.903 Y101.318 E.20477  ;Modified
G1 X124.251 Y101.318 E.02497  ;Modified
G1 X128.682 Y105.749 E.24008  ;Modified
G1 X128.682 Y106.401 E.02497  ;Modified
G1 X123.599 Y101.318 E.2754  ;Modified
G1 X122.948 Y101.318 E.02497  ;Modified
G1 X128.682 Y107.052 E.31071  ;Modified
G1 X128.682 Y107.704 E.02497  ;Modified
G1 X122.296 Y101.318 E.34602  ;Modified
G1 X121.644 Y101.318 E.02497  ;Modified
G1 X128.682 Y108.356 E.38134  ;Modified
G1 X128.682 Y108.682 E.01248  ;Modified
G1 X128.356 Y108.682 E.01249  ;Modified
G1 X121.318 Y101.644 E.38133  ;Modified
G1 X121.318 Y102.296 E.02497  ;Modified
G1 X127.704 Y108.682 E.34602  ;Modified
G1 X127.052 Y108.682 E.02497  ;Modified
M73 P4 R7
G1 X121.318 Y102.948 E.3107  ;Modified
G1 X121.318 Y103.599 E.02497  ;Modified
G1 X126.401 Y108.682 E.27539  ;Modified
G1 X125.749 Y108.682 E.02497  ;Modified
G1 X121.318 Y104.251 E.24008  ;Modified
G1 X121.318 Y104.903 E.02497  ;Modified
G1 X125.097 Y108.682 E.20476  ;Modified
G1 X124.446 Y108.682 E.02497  ;Modified
G1 X121.318 Y105.554 E.16945  ;Modified
G1 X121.318 Y106.206 E.02497  ;Modified
G1 X123.794 Y108.682 E.13414  ;Modified
G1 X123.142 Y108.682 E.02497  ;Modified
G1 X121.318 Y106.858 E.09883  ;Modified
G1 X121.318 Y107.509 E.02497  ;Modified
G1 X122.491 Y108.682 E.06351  ;Modified
G1 X121.839 Y108.682 E.02497  ;Modified
G1 X121.113 Y107.955 E.03934  ;Modified
M204 P1000
; stop printing object xyz-10mm-calibration-cube.stl id:0 copy 0
M106 S84.15
;PRE_HEATING_PHASE
G92 X129.45 Y99.55 E0.0
G1 X119.55 Y99.55
G92 X119.55 Y99.962 E0.0
G1 X129.45 Y99.962
G92 X129.45 Y100.375 E0.0
G1 X119.55 Y100.375
G92 X119.55 Y100.788 E0.0
G1 X129.45 Y100.788
G92 X129.45 Y101.2 E0.0
G1 X119.55 Y101.2
G92 X119.55 Y101.612 E0.0
G1 X129.45 Y101.612
G92 X129.45 Y102.025 E0.0
G1 X119.55 Y102.025
G92 X119.55 Y102.438 E0.0
G1 X129.45 Y102.438
G92 X129.45 Y102.85 E0.0
G1 X119.55 Y102.85
G92 X119.55 Y103.262 E0.0
G1 X129.45 Y103.262
G92 X129.45 Y103.675 E0.0
G1 X119.55 Y103.675
G92 X119.55 Y104.088 E0.0
G1 X129.45 Y104.088
G92 X129.45 Y104.5 E0.0
G1 X119.55 Y104.5
G92 X119.55 Y104.912 E0.0
G1 X129.45 Y104.912
G92 X129.45 Y105.325 E0.0
G1 X119.55 Y105.325
G92 X119.55 Y105.738 E0.0
G1 X129.45 Y105.738
G92 X129.45 Y106.15 E0.0
G1 X119.55 Y106.15
G92 X119.55 Y106.562 E0.0
G1 X129.45 Y106.562
G92 X129.45 Y106.975 E0.0
G1 X119.55 Y106.975
G92 X119.55 Y107.388 E0.0
G1 X129.45 Y107.388
G92 X129.45 Y107.8 E0.0
G1 X119.55 Y107.8
G92 X119.55 Y108.212 E0.0
G1 X129.45 Y108.212
G92 X129.45 Y108.625 E0.0
G1 X119.55 Y108.625
G92 X119.55 Y109.038 E0.0
G1 X129.45 Y109.038
G92 X129.45 Y109.45 E0.0
G1 X119.55 Y109.45
;END_PRE_HEATING_PHASE
;LAYER_CHANGE
;Z:0.4
;HEIGHT:0.2
;BEFORE_LAYER_CHANGE
G92 E0.0
;0.4


G1 E-.64 F2100  ;Modified
;WIPE_START
G1 F8832.0  ;Modified
G1 X121.63 Y108.473 E-.152  ;Modified
;WIPE_END
G1 E-.008 F2100  ;Modified
G1 Z.4 F662.4  ;Modified
;AFTER_LAYER_CHANGE
;0.4
; printing object xyz-10mm-calibration-cube.stl id:0 copy 0
G1 Z.6  ;Modified
G1 X129.368 Y109.368 F12000  ;Modified
G1 Z.4 F662.4  ;Modified
G1 E.8 F1500  ;Modified
M204 P900
;TYPE:Perimeter
;WIDTH:0.449999
G1 X120.632 Y109.368 E.2957  ;Modified
G1 X120.632 Y100.632 E.2957  ;Modified
G1 X129.368 Y100.632 E.2957  ;Modified
G1 X129.368 Y109.308 E.29367  ;Modified
M204 P1000
G1 X129.775 Y109.775 F12000  ;Modified
M204 P700
;TYPE:External perimeter
G1 F1380.0  ;Modified
M73 P5 R7
G1 X120.225 Y109.775 E.32326  ;Modified
G1 X120.225 Y100.225 E.32326  ;Modified
G1 X129.775 Y100.225 E.32326  ;Modified
G1 X129.775 Y109.715 E.32122  ;Modified
M204 P1000
G1 X129.389 Y109.671 F12000  ;Modified
G1 X129.185 Y108.355  ;Modified
M204 P1500
;TYPE:Solid infill
;WIDTH:0.45305
G1 F1946.72  ;Modified
G1 X128.539 Y109.002 E.03116  ;Modified
G1 X127.959 Y109.002 E.01978  ;Modified
G1 X129.002 Y107.959 E.0503  ;Modified
G1 X129.002 Y107.379 E.01978  ;Modified
G1 X127.379 Y109.002 E.07828  ;Modified
G1 X126.799 Y109.002 E.01978  ;Modified
G1 X129.002 Y106.799 E.10625  ;Modified
G1 X129.002 Y106.218 E.01978  ;Modified
G1 X126.218 Y109.002 E.13422  ;Modified
G1 X125.638 Y109.002 E.01978  ;Modified
G1 X129.002 Y105.638 E.16219  ;Modified
G1 X129.002 Y105.058 E.01978  ;Modified
G1 X125.058 Y109.002 E.19017  ;Modified
G1 X124.478 Y109.002 E.01978  ;Modified
G1 X129.002 Y104.478 E.21814  ;Modified
G1 X129.002 Y103.898 E.01978  ;Modified
G1 X123.898 Y109.002 E.24611  ;Modified
G1 X123.318 Y109.002 E.01978  ;Modified
G1 X129.002 Y103.318 E.27409  ;Modified
G1 X129.002 Y102.738 E.01978  ;Modified
G1 X122.738 Y109.002 E.30206  ;Modified
G1 X122.158 Y109.002 E.01978  ;Modified
G1 X129.002 Y102.158 E.33003  ;Modified
G1 X129.002 Y101.578 E.01978  ;Modified
G1 X121.578 Y109.002 E.358  ;Modified
G1 X120.998 Y109.002 E.01978  ;Modified
G1 X129.002 Y100.998 E.38597  ;Modified
G1 X128.421 Y100.998 E.01978  ;Modified
M73 P6 R7
G1 X120.998 Y108.421 E.358  ;Modified
G1 X120.998 Y107.841 E.01978  ;Modified
G1 X127.841 Y100.998 E.33003  ;Modified
G1 X127.261 Y100.998 E.01978  ;Modified
G1 X120.998 Y107.261 E.30205  ;Modified
G1 X120.998 Y106.681 E.01978  ;Modified
G1 X126.681 Y100.998 E.27408  ;Modified
G1 X126.101 Y100.998 E.01978  ;Modified
G1 X120.998 Y106.101 E.24611  ;Modified
G1 X120.998 Y105.521 E.01978  ;Modified
G1 X125.521 Y100.998 E.21813  ;Modified
G1 X124.941 Y100.998 E.01978  ;Modified
G1 X120.998 Y104.941 E.19016  ;Modified
G1 X120.998 Y104.361 E.01978  ;Modified
G1 X124.361 Y100.998 E.16219  ;Modified
G1 X123.781 Y100.998 E.01978  ;Modified
G1 X120.998 Y103.781 E.13422  ;Modified
G1 X120.998 Y103.201 E.01978  ;Modified
G1 X123.201 Y100.998 E.10624  ;Modified
G1 X122.621 Y100.998 E.01978  ;Modified
G1 X120.998 Y102.621 E.07827  ;Modified
G1 X120.998 Y102.041 E.01978  ;Modified
G1 X122.041 Y100.998 E.0503  ;Modified
G1 X121.461 Y100.998 E.01978  ;Modified
G1 X120.815 Y101.645 E.03116  ;Modified
M204 P1000
; stop printing object xyz-10mm-calibration-cube.stl id:0 copy 0
M106 S170.85
;PRE_HEATING_PHASE
G92 X129.45 Y99.55 E0.0
G1 X119.55 Y99.55
G92 X119.55 Y99.962 E0.0
G1 X129.45 Y99.962
G92 X129.45 Y100.375 E0.0
G1 X119.55 Y100.375
G92 X119.55 Y100.788 E0.0
G1 X129.45 Y100.788
G92 X129.45 Y101.2 E0.0
G1 X119.55 Y101.2
G92 X119.55 Y101.612 E0.0
G1 X129.45 Y101.612
G92 X129.45 Y102.025 E0.0
G1 X119.55 Y102.025
G92 X119.55 Y102.438 E0.0
G1 X129.45 Y102.438
G92 X129.45 Y102.85 E0.0
G1 X119.55 Y102.85
G92 X119.55 Y103.262 E0.0
G1 X129.45 Y103.262
G92 X129.45 Y103.675 E0.0
G1 X119.55 Y103.675
G92 X119.55 Y104.088 E0.0
G1 X129.45 Y104.088
G92 X129.45 Y104.5 E0.0
G1 X119.55 Y104.5
G92 X119.55 Y104.912 E0.0
G1 X129.45 Y104.912
G92 X129.45 Y105.325 E0.0
G1 X119.55 Y105.325
G92 X119.55 Y105.738 E0.0
G1 X129.45 Y105.738
G92 X129.45 Y106.15 E0.0
G1 X119.55 Y106.15
G92 X119.55 Y106.562 E0.0
G1 X129.45 Y106.562
G92 X129.45 Y106.975 E0.0
G1 X119.55 Y106.975
G92 X119.55 Y107.388 E0.0
G1 X129.45 Y107.388
G92 X129.45 Y107.8 E0.0
G1 X119.55 Y107.8
G92 X119.55 Y108.212 E0.0
G1 X129.45 Y108.212
G92 X129.45 Y108.625 E0.0
G1 X119.55 Y108.625
G92 X119.55 Y109.038 E0.0
G1 X129.45 Y109.038
G92 X129.45 Y109.45 E0.0
G1 X119.55 Y109.45
;END_PRE_HEATING_PHASE
;LAYER_CHANGE
;Z:0.6
;HEIGHT:0.2
;BEFORE_LAYER_CHANGE
G92 E0.0
;0.6


G1 E-.64 F2100  ;Modified
;WIPE_START
G1 F8928.0  ;Modified
G1 X121.332 Y101.127 E-.152  ;Modified
;WIPE_END
G1 E-.008 F2100  ;Modified
G1 Z.6 F669.6  ;Modified
;AFTER_LAYER_CHANGE
;0.6
; printing object xyz-10mm-calibration-cube.stl id:0 copy 0
G1 Z.8  ;Modified
G1 X129.368 Y109.368 F12000  ;Modified
G1 Z.6 F669.6  ;Modified
G1 E.8 F1500  ;Modified
M204 P900
;TYPE:Perimeter
;WIDTH:0.449999
G1 X120.632 Y109.368 E.2957  ;Modified
G1 X120.632 Y100.632 E.2957  ;Modified
G1 X129.368 Y100.632 E.2957  ;Modified
G1 X129.368 Y109.308 E.29367  ;Modified
M204 P1000
G1 X129.775 Y109.775 F12000  ;Modified
M204 P700
;TYPE:External perimeter
G1 F1395.0  ;Modified
G1 X120.225 Y109.775 E.32326  ;Modified
M73 P7 R7
G1 X120.225 Y100.225 E.32326  ;Modified
G1 X129.775 Y100.225 E.32326  ;Modified
G1 X129.775 Y109.715 E.32122  ;Modified
M204 P1000
G1 X129.389 Y109.671 F12000  ;Modified
G1 E-.64 F2100  ;Modified
;WIPE_START
G1 F8928.0  ;Modified
G1 X129.044 Y109.72 E-.152  ;Modified
;WIPE_END
G1 E-.008 F2100  ;Modified
G1 Z.8 F669.6  ;Modified
G1 X128.355 Y100.815 F12000  ;Modified
G1 Z.6 F669.6  ;Modified
G1 E.8 F1500  ;Modified
M204 P1500
;TYPE:Solid infill
;WIDTH:0.45305
G1 F2034.84  ;Modified
G1 X129.002 Y101.461 E.03116  ;Modified
G1 X129.002 Y102.041 E.01978  ;Modified
G1 X127.959 Y100.998 E.0503  ;Modified
G1 X127.379 Y100.998 E.01978  ;Modified
G1 X129.002 Y102.621 E.07828  ;Modified
G1 X129.002 Y103.201 E.01978  ;Modified
G1 X126.799 Y100.998 E.10625  ;Modified
G1 X126.218 Y100.998 E.01978  ;Modified
G1 X129.002 Y103.782 E.13422  ;Modified
G1 X129.002 Y104.362 E.01978  ;Modified
G1 X125.638 Y100.998 E.16219  ;Modified
G1 X125.058 Y100.998 E.01978  ;Modified
G1 X129.002 Y104.942 E.19017  ;Modified
G1 X129.002 Y105.522 E.01978  ;Modified
G1 X124.478 Y100.998 E.21814  ;Modified
G1 X123.898 Y100.998 E.01978  ;Modified
G1 X129.002 Y106.102 E.24611  ;Modified
G1 X129.002 Y106.682 E.01978  ;Modified
G1 X123.318 Y100.998 E.27409  ;Modified
G1 X122.738 Y100.998 E.01978  ;Modified
G1 X129.002 Y107.262 E.30206  ;Modified
G1 X129.002 Y107.842 E.01978  ;Modified
G1 X122.158 Y100.998 E.33003  ;Modified
G1 X121.578 Y100.998 E.01978  ;Modified
G1 X129.002 Y108.422 E.358  ;Modified
G1 X129.002 Y109.002 E.01978  ;Modified
G1 X120.998 Y100.999 E.38597  ;Modified
G1 X120.998 Y101.579 E.01978  ;Modified
G1 X128.421 Y109.002 E.358  ;Modified
G1 X127.841 Y109.002 E.01978  ;Modified
M73 P8 R7
G1 X120.998 Y102.159 E.33003  ;Modified
G1 X120.998 Y102.739 E.01978  ;Modified
G1 X127.261 Y109.002 E.30205  ;Modified
G1 X126.681 Y109.002 E.01978  ;Modified
G1 X120.998 Y103.319 E.27408  ;Modified
G1 X120.998 Y103.899 E.01978  ;Modified
G1 X126.101 Y109.002 E.24611  ;Modified
G1 X125.521 Y109.002 E.01978  ;Modified
G1 X120.998 Y104.479 E.21814  ;Modified
G1 X120.998 Y105.059 E.01978  ;Modified
G1 X124.941 Y109.002 E.19016  ;Modified
G1 X124.361 Y109.002 E.01978  ;Modified
G1 X120.998 Y105.639 E.16219  ;Modified
G1 X120.998 Y106.219 E.01978  ;Modified
G1 X123.781 Y109.002 E.13422  ;Modified
G1 X123.201 Y109.002 E.01978  ;Modified
G1 X120.998 Y106.799 E.10624  ;Modified
G1 X120.998 Y107.379 E.01978  ;Modified
G1 X122.621 Y109.002 E.07827  ;Modified
G1 X122.041 Y109.002 E.01978  ;Modified
G1 X120.998 Y107.959 E.0503  ;Modified
G1 X120.998 Y108.539 E.01978  ;Modified
G1 X121.645 Y109.185 E.03116  ;Modified
M204 P1000
; stop printing object xyz-10mm-calibration-cube.stl id:0 copy 0
M106 S255
;PRE_HEATING_PHASE
G92 X129.45 Y99.55 E0.0
G1 X119.55 Y99.55
G92 X119.55 Y99.962 E0.0
G1 X129.45 Y99.962
G92 X129.45 Y100.375 E0.0
G1 X119.55 Y100.375
G92 X119.55 Y100.788 E0.0
G1 X129.45 Y100.788
G92 X129.45 Y101.2 E0.0
G1 X119.55 Y101.2
G92 X119.55 Y101.612 E0.0
G1 X129.45 Y101.612
G92 X129.45 Y102.025 E0.0
G1 X119.55 Y102.025
G92 X119.55 Y102.438 E0.0
G1 X129.45 Y102.438
G92 X129.45 Y102.85 E0.0
G1 X119.55 Y102.85
G92 X119.55 Y103.262 E0.0
G1 X129.45 Y103.262
G92 X129.45 Y103.675 E0.0
G1 X119.55 Y103.675
G92 X119.55 Y104.088 E0.0
G1 X129.45 Y104.088
G92 X129.45 Y104.5 E0.0
G1 X119.55 Y104.5
G92 X119.55 Y104.912 E0.0
G1 X129.45 Y104.912
G92 X129.45 Y105.325 E0.0
G1 X119.55 Y105.325
G92 X119.55 Y105.738 E0.0
G1 X129.45 Y105.738
G92 X129.45 Y106.15 E0.0
G1 X119.55 Y106.15
G92 X119.55 Y106.562 E0.0
G1 X129.45 Y106.562
G92 X129.45 Y106.975 E0.0
G1 X119.55 Y106.975
G92 X119.55 Y107.388 E0.0
G1 X129.45 Y107.388
G92 X129.45 Y107.8 E0.0
G1 X119.55 Y107.8
G92 X119.55 Y108.212 E0.0
G1 X129.45 Y108.212
G92 X129.45 Y108.625 E0.0
G1 X119.55 Y108.625
G92 X119.55 Y109.038 E0.0
G1 X129.45 Y109.038
G92 X129.45 Y109.45 E0.0
G1 X119.55 Y109.45
;END_PRE_HEATING_PHASE
;LAYER_CHANGE
;Z:0.8
;HEIGHT:0.2
;BEFORE_LAYER_CHANGE
G92 E0.0
;0.8


G1 E-.64 F2100  ;Modified
;WIPE_START
G1 F9024.0  ;Modified
G1 X121.127 Y108.668 E-.152  ;Modified
;WIPE_END
G1 E-.008 F2100  ;Modified
G1 Z.8 F676.8  ;Modified
;AFTER_LAYER_CHANGE
;0.8
; printing object xyz-10mm-calibration-cube.stl id:0 copy 0
